dist/img/clients/client_1.svg

<svg width="176" height="54" viewBox="0 0 176 54" fill="none" xmlns="http://www.w3.org/2000/svg">
<g clip-path="url(#clip0_2986_18316)">
<path d="M11.5368 46.0582C4.06067 46.0582 0 40.7427 0 34.0825C0 27.3519 4.77972 21.8446 12.6277 21.8446C14.711 21.8446 16.5209 22.114 18.0895 22.9223V27.2621C16.5044 26.2872 14.6684 25.7817 12.8001 25.8058C7.47616 25.8058 5.51108 29.6893 5.51108 33.7475C5.51108 38.2888 7.98836 41.8883 12.3224 41.8883C14.2333 41.8883 15.7699 41.3664 17.6167 40.3907L18.944 43.9077C16.1811 45.6237 13.822 46.0606 11.5368 46.0606M95.6042 46.0606C90.0759 46.0606 87.2317 42.0582 87.2317 37.2791C87.2317 31.9393 90.987 28.398 96.0056 28.398C98.2219 28.398 99.3842 28.8349 100.305 29.3689V33.2038C99.0739 32.33 98.0889 32.0266 96.7222 32.0266C93.8879 32.0266 92.0656 34.08 92.0656 37.0388C92.0656 39.6965 93.4791 42.2888 96.6532 42.2888C97.5397 42.2888 98.7144 41.9101 99.9776 41.2718L101.16 44.4417C99.724 45.3834 97.3354 46.0558 95.5944 46.0558M110.978 32.5655V45.7184H106.053V32.5679H101.293V28.733H116.38L115.314 32.5679L110.978 32.5655ZM134.746 30.716C134.746 36.6359 134.499 39.7305 133.416 41.1529C132.851 41.8618 132.033 42.3315 131.128 42.466L132.493 46.0655C133.62 46.0315 135.361 45.5606 136.556 44.3834C138.127 42.8689 138.636 40.9514 138.875 38.932C139.095 37.1008 139.209 35.2589 139.218 33.415V32.5752H143.071V45.7281H147.996V28.7378H134.756L134.746 30.716ZM79.0242 28.398C77.1133 28.398 75.6456 29.3082 74.3824 30.2839L73.8357 28.7354H69.7061V54.0024L74.6311 52.5218V45.3519C75.6609 45.8478 76.7974 46.0901 77.9431 46.0582C83.0282 46.0582 86.099 41.7864 86.099 36.7402C86.0891 31.3567 82.9864 28.398 79.0242 28.398ZM76.739 42.5631C75.9792 42.5618 75.2389 42.3268 74.6212 41.8907V33.847C75.2024 32.9732 76.739 31.9296 78.0343 31.9296C80.0043 31.9296 81.174 33.1747 81.174 36.6747C81.174 39.5631 80.0831 42.5606 76.739 42.5606V42.5631ZM123.445 28.398C121.123 28.398 118.875 28.7524 116.516 30.2572L117.993 33.1893C119.332 32.4381 120.846 32.0418 122.386 32.0388C124.09 32.0388 125.615 32.7815 125.615 34.5679V34.8567L122.635 34.9684C118.286 35.1116 115.349 36.9708 115.349 40.5509C115.349 43.915 117.811 46.0582 121.076 46.0582C122.875 46.096 124.619 45.4422 125.937 44.2354L126.701 45.7232H130.547V34.6893C130.557 30.2184 128.018 28.398 123.445 28.398ZM125.625 41.5194C124.811 42.0589 123.847 42.3339 122.867 42.3058C121.195 42.3058 120.254 41.483 120.254 40.199C120.254 38.915 121.268 38.1965 123.374 38.1237L125.625 38.0533V41.5194ZM157.534 34.2524H155.007V27.9927L150.082 29.2912V45.7232H156.369C160.942 45.7232 165.209 44.5097 165.209 39.8349C165.214 35.8664 161.767 34.2499 157.534 34.2499V34.2524ZM156.714 42.3737H155.007V37.6213H156.647C158.386 37.6213 160.299 37.8907 160.299 39.9077C160.299 41.9247 158.659 42.3713 156.714 42.3713V42.3737ZM47.6248 36.4732V36.3373C49.2279 36.0024 50.5601 34.9587 50.5601 32.7378C50.5601 30.0873 48.302 29.1213 46.0833 28.8276C45.4036 28.7378 43.9138 28.7354 43.084 28.7354H36.0584V45.7257H41.9684C42.621 45.7257 43.5937 45.7257 44.3521 45.7014C47.4549 45.5558 51.2866 44.4635 51.2866 40.5097C51.2767 38.0849 49.9445 36.8737 47.6248 36.4708V36.4732ZM41.0696 31.9708H43.0938C45.1057 31.9708 45.8592 32.5776 45.8592 33.6213C45.8592 34.932 44.6279 35.3349 42.5816 35.3349H41.0795L41.0696 31.9708ZM42.9805 42.5024H40.9662V38.3276H42.7417C45.0958 38.3276 46.3591 38.8664 46.3591 40.381C46.3591 41.9902 44.687 42.4999 42.9805 42.4999V42.5024ZM34.4406 37.08C34.4406 31.83 31.163 28.398 26.4522 28.398C21.2982 28.398 18.3974 32.5024 18.3974 37.2815C18.3974 41.7548 20.9239 46.0606 27.0678 46.0606C29.4743 46.0727 31.833 45.3984 33.8594 44.1189L32.7661 41.0582C30.8207 41.9684 29.5648 42.2718 27.8854 42.2718C25.5977 42.2718 23.4135 40.8592 23.3101 38.5703H34.4406V37.08ZM23.2091 35.2305C23.2091 33.682 24.3369 31.932 26.3143 31.932C28.4 31.932 29.3186 33.614 29.422 35.2305H23.2091ZM68.3 37.08C68.3 31.83 65.0224 28.398 60.3116 28.398C55.1576 28.398 52.2568 32.5024 52.2568 37.2815C52.2568 41.7548 54.7833 46.0606 60.9272 46.0606C63.3338 46.073 65.6926 45.3986 67.7188 44.1189L66.6255 41.0582C64.6826 41.9684 63.4242 42.2718 61.7448 42.2718C59.4596 42.2718 57.2754 40.8592 57.1719 38.5703H68.3V37.08ZM57.0685 35.2305C57.0685 33.682 58.1963 31.932 60.1737 31.932C62.257 31.932 63.178 33.614 63.2814 35.2305H57.0685Z" fill="#1D1D1D"/>
<path d="M173.964 16.7306C173.7 16.9167 173.41 17.0624 173.102 17.1626C172.117 17.466 170.93 17.1869 169.851 16.7524C169.015 16.4096 168.207 16.0022 167.436 15.534C167.919 14.358 168.322 13.1514 168.642 11.9223C169.135 10.1187 169.423 8.26672 169.502 6.40046C169.538 5.4884 169.495 4.57498 169.376 3.66987C169.223 2.53152 168.871 1.37376 168.118 0.689291C167.861 0.471073 167.573 0.291165 167.263 0.155311C168.628 0.00366536 170.005 -0.0263915 171.376 0.0655049C172.644 0.172301 173.934 0.480554 174.688 1.20871C175.441 1.93686 175.774 3.20628 175.919 4.449C176.044 5.7953 176.035 7.15039 175.894 8.49512C175.721 10.1914 175.411 11.8714 174.968 13.5194C174.668 14.6699 174.318 15.7767 173.964 16.7306ZM155.384 15.7888C155.353 15.4701 155.371 15.1486 155.436 14.8349C155.655 13.864 156.5 12.9708 157.421 12.267C158.144 11.7226 158.909 11.2356 159.711 10.8107C160.5 11.8151 161.359 12.7655 162.279 13.6553C163.621 14.9782 165.108 16.1504 166.712 17.1505C167.495 17.6371 168.319 18.0585 169.174 18.4102C170.25 18.8495 171.444 19.1383 172.422 18.8228C172.743 18.7159 173.046 18.5604 173.318 18.3616C172.772 19.6031 172.113 20.7932 171.348 21.9174C170.61 22.9466 169.706 23.8956 168.689 24.1723C167.672 24.449 166.391 24.1019 165.241 23.5922C163.99 23.0278 162.796 22.345 161.678 21.5534C160.279 20.5558 158.962 19.4513 157.738 18.25C156.839 17.4199 156.049 16.5752 155.384 15.7888ZM165.48 0.393175C165.776 0.524689 166.05 0.699833 166.293 0.912592C167.044 1.5922 167.399 2.75483 167.556 3.89318C167.67 4.7784 167.712 5.67123 167.682 6.56308C166.407 6.73673 165.146 6.99623 163.907 7.33978C162.076 7.82044 160.304 8.49932 158.625 9.36405C157.805 9.78994 157.024 10.2828 156.288 10.8374C155.364 11.5364 154.522 12.4174 154.301 13.4029C154.234 13.7313 154.22 14.0678 154.259 14.4005C153.441 13.3112 152.726 12.1511 152.121 10.9344C151.582 9.79609 151.205 8.54123 151.469 7.53638C151.732 6.53153 152.683 5.60919 153.71 4.86648C154.832 4.08058 156.028 3.40348 157.283 2.84463C158.86 2.1458 160.491 1.5704 162.161 1.12376C163.311 0.822787 164.448 0.572787 165.48 0.393175Z" fill="#1D1D1D"/>
</g>
<defs>
<clipPath id="clip0_2986_18316">
<rect width="176" height="54" fill="white"/>
</clipPath>
</defs>
</svg>

<svg width="176" height="54" viewBox="0 0 176 54" fill="none" xmlns="http://www.w3.org/2000/svg"><g clip-path="url(#clip0_2986_18316)" fill="#1D1D1D"><path d="M11.537 46.058C4.06 46.058 0 40.743 0 34.083c0-6.731 4.78-12.238 12.628-12.238 2.083 0 3.893.269 5.462 1.077v4.34a9.857 9.857 0 00-5.29-1.456c-5.324 0-7.289 3.883-7.289 7.942 0 4.54 2.477 8.14 6.811 8.14 1.911 0 3.448-.522 5.295-1.497l1.327 3.517c-2.763 1.716-5.122 2.153-7.407 2.153m84.067 0c-5.528 0-8.372-4.003-8.372-8.782 0-5.34 3.755-8.881 8.774-8.881 2.216 0 3.378.437 4.299.97v3.836c-1.231-.874-2.216-1.177-3.583-1.177-2.834 0-4.656 2.053-4.656 5.012 0 2.657 1.413 5.25 4.587 5.25.887 0 2.061-.379 3.325-1.017l1.182 3.17c-1.436.941-3.825 1.614-5.566 1.614m15.384-13.49v13.152h-4.925v-13.15h-4.76v-3.835h15.087l-1.066 3.835-4.336-.002zm23.768-1.85c0 5.92-.247 9.014-1.33 10.437a3.6 3.6 0 01-2.288 1.313l1.365 3.6c1.127-.035 2.868-.505 4.063-1.683 1.571-1.514 2.08-3.432 2.319-5.451.22-1.831.334-3.673.343-5.517v-.84h3.853v13.153h4.925v-16.99h-13.24l-.01 1.978zm-55.722-2.318c-1.91 0-3.378.91-4.642 1.886l-.546-1.549h-4.13v25.267l4.925-1.48v-7.17a7.176 7.176 0 003.312.706c5.085 0 8.156-4.272 8.156-9.318-.01-5.383-3.113-8.342-7.075-8.342zM76.74 42.563a3.684 3.684 0 01-2.118-.672v-8.044c.581-.874 2.118-1.917 3.413-1.917 1.97 0 3.14 1.245 3.14 4.745 0 2.888-1.09 5.886-4.435 5.886v.002zm46.706-14.165c-2.322 0-4.57.354-6.929 1.86l1.477 2.931a9.018 9.018 0 014.393-1.15c1.704 0 3.229.742 3.229 2.529v.289l-2.98.111c-4.349.144-7.286 2.003-7.286 5.583 0 3.364 2.462 5.507 5.727 5.507a6.984 6.984 0 004.861-1.823l.764 1.488h3.846V34.69c.01-4.47-2.529-6.291-7.102-6.291zm2.18 13.121a4.747 4.747 0 01-2.758.787c-1.672 0-2.613-.823-2.613-2.107 0-1.284 1.014-2.002 3.12-2.075l2.251-.07v3.465zm31.909-7.267h-2.527v-6.26l-4.925 1.3v16.431h6.287c4.573 0 8.84-1.213 8.84-5.888.005-3.969-3.442-5.585-7.675-5.585v.002zm-.82 8.122h-1.707V37.62h1.64c1.739 0 3.652.27 3.652 2.287s-1.64 2.463-3.585 2.463v.003zm-109.09-5.9v-.137c1.604-.335 2.936-1.378 2.936-3.6 0-2.65-2.258-3.616-4.477-3.91-.68-.09-2.17-.092-2.999-.092h-7.026v16.99h5.91c.653 0 1.626 0 2.384-.024 3.103-.145 6.935-1.237 6.935-5.191-.01-2.425-1.343-3.636-3.662-4.04v.003zM41.07 31.97h2.024c2.012 0 2.765.607 2.765 1.65 0 1.311-1.231 1.714-3.277 1.714H41.08l-.01-3.364zm1.91 10.531h-2.014v-4.174h1.776c2.354 0 3.617.538 3.617 2.053 0 1.61-1.672 2.119-3.379 2.119v.002zm-8.54-5.422c0-5.25-3.277-8.682-7.988-8.682-5.154 0-8.055 4.104-8.055 8.884 0 4.473 2.527 8.779 8.67 8.779a12.606 12.606 0 006.792-1.942l-1.093-3.06c-1.945.91-3.201 1.213-4.88 1.213-2.288 0-4.473-1.413-4.576-3.702h11.13v-1.49zm-11.23-1.85c0-1.548 1.127-3.298 3.104-3.298 2.086 0 3.005 1.682 3.108 3.299h-6.213zm45.09 1.85c0-5.25-3.278-8.682-7.988-8.682-5.154 0-8.055 4.104-8.055 8.884 0 4.473 2.526 8.779 8.67 8.779a12.601 12.601 0 006.792-1.942l-1.093-3.06c-1.943.91-3.202 1.213-4.881 1.213-2.285 0-4.47-1.413-4.573-3.702H68.3v-1.49zm-11.231-1.85c0-1.548 1.127-3.298 3.105-3.298 2.083 0 3.004 1.682 3.107 3.299H57.07zM173.964 16.73a3.23 3.23 0 01-.862.433c-.985.303-2.172.024-3.251-.41a17.295 17.295 0 01-2.415-1.219 28.225 28.225 0 001.206-3.612 24.94 24.94 0 00.86-5.522 16.082 16.082 0 00-.126-2.73c-.153-1.138-.505-2.296-1.258-2.98a3.477 3.477 0 00-.855-.535 23.204 23.204 0 014.113-.09c1.268.107 2.558.416 3.312 1.144.753.728 1.086 1.997 1.231 3.24a20.565 20.565 0 01-.025 4.046 31.772 31.772 0 01-.926 5.024c-.3 1.15-.65 2.258-1.004 3.212zm-18.58-.941a3.183 3.183 0 01.052-.954c.219-.971 1.064-1.864 1.985-2.568a17.167 17.167 0 012.29-1.456 28.162 28.162 0 002.568 2.844 25.631 25.631 0 004.433 3.496c.783.486 1.607.907 2.462 1.26 1.076.438 2.27.727 3.248.412a3.27 3.27 0 00.896-.461 22.22 22.22 0 01-1.97 3.555c-.738 1.03-1.642 1.979-2.659 2.255-1.017.277-2.298-.07-3.448-.58a21.387 21.387 0 01-3.563-2.039 32.866 32.866 0 01-3.94-3.303 27.81 27.81 0 01-2.354-2.461zM165.48.393c.296.132.57.307.813.52.751.68 1.106 1.842 1.263 2.98.114.885.156 1.778.126 2.67a28.542 28.542 0 00-3.775.777 25.9 25.9 0 00-5.282 2.024c-.82.426-1.601.919-2.337 1.473-.924.7-1.766 1.58-1.987 2.566a3.152 3.152 0 00-.042.997 22.323 22.323 0 01-2.138-3.466c-.539-1.138-.916-2.393-.652-3.398.263-1.004 1.214-1.927 2.241-2.67a21.402 21.402 0 013.573-2.021 33.235 33.235 0 014.878-1.721 41.304 41.304 0 013.319-.73z"/></g><defs><clipPath id="clip0_2986_18316"><path fill="#fff" d="M0 0h176v54H0z"/></clipPath></defs></svg>
